flaticon/transport/school-bus.svg

<svg xmlns="http://www.w3.org/2000/svg" width="32" height="32" viewBox="0 0 24 24">
    <path d="M 22.351562 10.8125 L 23.269531 10.8125 C 23.671875 10.8125 23.988281 10.492188 23.988281 10.089844 L 23.988281 7.574219 C 23.988281 7.175781 23.671875 6.855469 23.269531 6.855469 L 22.351562 6.855469 C 21.953125 6.855469 21.632812 7.175781 21.632812 7.574219 L 21.632812 8.414062 L 21.191406 8.414062 L 21.191406 3.21875 C 21.191406 3.097656 21.152344 3.015625 21.074219 2.9375 C 17.195312 -0.980469 6.84375 -0.980469 2.925781 2.9375 C 2.847656 3.015625 2.808594 3.097656 2.808594 3.21875 L 2.808594 8.414062 L 2.367188 8.414062 L 2.367188 7.574219 C 2.367188 7.175781 2.046875 6.855469 1.648438 6.855469 L 0.730469 6.855469 C 0.328125 6.855469 0.0117188 7.175781 0.0117188 7.574219 L 0.0117188 10.089844 C 0.0117188 10.492188 0.328125 10.8125 0.730469 10.8125 L 1.6875 10.8125 C 2.089844 10.8125 2.40625 10.492188 2.367188 10.089844 L 2.367188 9.210938 L 2.808594 9.210938 L 2.808594 13.914062 C 2.078125 14.503906 1.609375 15.402344 1.609375 16.40625 L 1.609375 18.40625 L 1.210938 18.40625 C 0.53125 18.40625 0.0117188 18.925781 0.0117188 19.605469 L 0.0117188 20.003906 C 0.0117188 20.683594 0.53125 21.203125 1.210938 21.203125 L 2.007812 21.203125 L 2.007812 22.402344 C 2.007812 23.28125 2.726562 24 3.605469 24 L 5.207031 24 C 6.085938 24 6.804688 23.28125 6.804688 22.402344 L 6.804688 21.203125 L 16.796875 21.203125 L 16.796875 22.402344 C 16.796875 23.28125 17.515625 24 18.394531 24 L 19.992188 24 C 20.871094 24 21.59375 23.28125 21.59375 22.402344 L 21.59375 21.203125 L 22.789062 21.203125 C 23.46875 21.203125 23.988281 20.683594 23.988281 20.003906 L 23.988281 19.605469 C 23.988281 18.925781 23.46875 18.40625 22.789062 18.40625 L 22.390625 18.40625 L 22.390625 16.40625 C 22.390625 15.402344 21.921875 14.503906 21.191406 13.914062 L 21.191406 9.210938 L 21.632812 9.210938 L 21.632812 10.089844 C 21.632812 10.492188 21.953125 10.8125 22.351562 10.8125 Z M 1.609375 10.011719 L 0.808594 10.011719 L 0.808594 7.613281 L 1.609375 7.613281 Z M 3.605469 3.378906 C 7.242188 -0.0585938 16.757812 -0.0585938 20.394531 3.378906 L 20.394531 4.816406 L 3.605469 4.816406 Z M 3.605469 5.617188 L 11.601562 5.617188 L 11.601562 13.207031 L 6.40625 13.207031 L 9.523438 9.050781 C 9.640625 8.890625 9.601562 8.613281 9.441406 8.492188 C 9.28125 8.371094 9.003906 8.414062 8.882812 8.574219 L 7.605469 10.277344 L 7.605469 9.613281 C 7.605469 9.371094 7.445312 9.210938 7.203125 9.210938 C 6.964844 9.210938 6.804688 9.371094 6.804688 9.613281 L 6.804688 11.210938 C 6.804688 11.25 6.808594 11.289062 6.816406 11.324219 L 5.40625 13.207031 L 4.804688 13.207031 C 4.753906 13.207031 4.703125 13.210938 4.652344 13.210938 C 4.605469 13.214844 4.558594 13.21875 4.511719 13.222656 C 4.507812 13.222656 4.503906 13.222656 4.5 13.222656 C 4.453125 13.230469 4.40625 13.234375 4.359375 13.242188 C 4.351562 13.242188 4.347656 13.242188 4.34375 13.242188 C 4.304688 13.25 4.261719 13.257812 4.222656 13.261719 C 4.210938 13.265625 4.195312 13.269531 4.183594 13.269531 C 4.152344 13.277344 4.121094 13.285156 4.089844 13.292969 C 4.066406 13.296875 4.046875 13.300781 4.027344 13.304688 C 3.992188 13.316406 3.960938 13.324219 3.929688 13.332031 C 3.914062 13.335938 3.898438 13.339844 3.882812 13.347656 C 3.789062 13.375 3.695312 13.40625 3.605469 13.445312 Z M 6.003906 22.402344 C 6.003906 22.839844 5.644531 23.199219 5.207031 23.199219 L 3.605469 23.199219 C 3.167969 23.199219 2.808594 22.839844 2.808594 22.402344 L 2.808594 21.203125 L 6.003906 21.203125 Z M 20.792969 22.402344 C 20.792969 22.839844 20.433594 23.199219 19.992188 23.199219 L 18.394531 23.199219 C 17.953125 23.199219 17.59375 22.839844 17.59375 22.402344 L 17.59375 21.203125 L 20.792969 21.203125 Z M 22.789062 19.203125 C 23.03125 19.203125 23.191406 19.363281 23.191406 19.605469 L 23.191406 20.003906 C 23.191406 20.242188 23.03125 20.402344 22.789062 20.402344 L 1.207031 20.402344 C 0.96875 20.402344 0.808594 20.242188 0.808594 20.003906 L 0.808594 19.605469 C 0.808594 19.363281 0.96875 19.203125 1.207031 19.203125 Z M 21.59375 16.40625 L 21.59375 18.40625 L 2.40625 18.40625 L 2.40625 16.40625 C 2.40625 15.621094 2.789062 14.921875 3.378906 14.484375 C 3.402344 14.472656 3.425781 14.460938 3.445312 14.449219 C 3.796875 14.203125 4.207031 14.050781 4.625 14.015625 C 4.625 14.015625 4.628906 14.015625 4.632812 14.015625 C 4.65625 14.011719 4.679688 14.011719 4.703125 14.011719 C 4.738281 14.007812 4.773438 14.007812 4.804688 14.007812 L 19.195312 14.007812 C 19.226562 14.007812 19.261719 14.007812 19.296875 14.011719 C 19.320312 14.011719 19.34375 14.011719 19.367188 14.015625 C 19.371094 14.015625 19.375 14.015625 19.375 14.015625 C 19.792969 14.050781 20.203125 14.203125 20.554688 14.449219 C 20.574219 14.457031 20.59375 14.46875 20.617188 14.476562 C 21.207031 14.917969 21.59375 15.617188 21.59375 16.40625 Z M 20.117188 13.347656 C 20.101562 13.339844 20.085938 13.335938 20.070312 13.332031 C 20.039062 13.324219 20.007812 13.316406 19.972656 13.304688 C 19.953125 13.300781 19.933594 13.296875 19.910156 13.292969 C 19.878906 13.285156 19.847656 13.277344 19.816406 13.269531 C 19.804688 13.269531 19.789062 13.265625 19.777344 13.261719 C 19.738281 13.257812 19.695312 13.25 19.65625 13.242188 C 19.652344 13.242188 19.648438 13.242188 19.640625 13.242188 C 19.59375 13.234375 19.546875 13.230469 19.5 13.222656 C 19.496094 13.222656 19.492188 13.222656 19.488281 13.222656 C 19.441406 13.21875 19.394531 13.214844 19.347656 13.210938 C 19.296875 13.210938 19.246094 13.207031 19.195312 13.207031 L 15.199219 13.207031 L 18.316406 9.050781 C 18.433594 8.890625 18.394531 8.613281 18.234375 8.492188 C 18.074219 8.371094 17.796875 8.414062 17.675781 8.574219 L 16.394531 10.277344 L 16.394531 9.613281 C 16.394531 9.371094 16.238281 9.210938 15.996094 9.210938 C 15.757812 9.210938 15.597656 9.371094 15.597656 9.613281 L 15.597656 11.210938 C 15.597656 11.25 15.601562 11.289062 15.609375 11.324219 L 14.199219 13.207031 L 12.398438 13.207031 L 12.398438 5.617188 L 20.394531 5.617188 L 20.394531 13.445312 C 20.304688 13.40625 20.210938 13.375 20.117188 13.347656 Z M 22.390625 7.613281 L 23.191406 7.613281 L 23.191406 10.011719 L 22.390625 10.011719 Z M 22.390625 7.613281"/>
    <path d="M7.203125 14.808594L4.007812 14.808594C3.765625 14.808594 3.605469 14.96875 3.605469 15.207031L3.605469 17.207031C3.605469 17.445312 3.765625 17.605469 4.007812 17.605469L7.203125 17.605469C7.445312 17.605469 7.605469 17.445312 7.605469 17.207031L7.605469 15.207031C7.605469 14.96875 7.445312 14.808594 7.203125 14.808594zM6.804688 16.804688L4.40625 16.804688 4.40625 15.605469 6.804688 15.605469zM19.992188 14.808594L16.796875 14.808594C16.554688 14.808594 16.394531 14.96875 16.394531 15.207031L16.394531 17.207031C16.394531 17.445312 16.554688 17.605469 16.796875 17.605469L19.992188 17.605469C20.234375 17.605469 20.394531 17.445312 20.394531 17.207031L20.394531 15.207031C20.394531 14.96875 20.234375 14.808594 19.992188 14.808594zM19.59375 16.804688L17.195312 16.804688 17.195312 15.605469 19.59375 15.605469zM14.796875 16.40625L9.203125 16.40625C8.960938 16.40625 8.800781 16.566406 8.800781 16.804688 8.800781 17.046875 8.960938 17.207031 9.203125 17.207031L14.796875 17.207031C15.039062 17.207031 15.199219 17.046875 15.199219 16.804688 15.199219 16.566406 15.039062 16.40625 14.796875 16.40625zM10 15.605469L14 15.605469C14.238281 15.605469 14.398438 15.445312 14.398438 15.207031 14.398438 14.96875 14.238281 14.808594 14 14.808594L10 14.808594C9.761719 14.808594 9.601562 14.96875 9.601562 15.207031 9.601562 15.445312 9.761719 15.605469 10 15.605469zM14 2.417969L10 2.417969C9.761719 2.417969 9.601562 2.578125 9.601562 2.816406 9.601562 3.058594 9.761719 3.21875 10 3.21875L14 3.21875C14.238281 3.21875 14.398438 3.058594 14.398438 2.816406 14.398438 2.578125 14.238281 2.417969 14 2.417969zM14 2.417969"/>
</svg>

<svg xmlns="http://www.w3.org/2000/svg" width="32" height="32" viewBox="0 0 24 24">
    <path d="M22.352 10.813h.918c.402 0 .718-.32.718-.723V7.574a.714.714 0 0 0-.718-.719h-.918a.717.717 0 0 0-.72.72v.84h-.44V3.218a.366.366 0 0 0-.118-.281C17.195-.98 6.844-.98 2.926 2.938a.366.366 0 0 0-.117.28v5.196h-.442v-.84a.717.717 0 0 0-.719-.719H.73a.714.714 0 0 0-.718.72v2.515c0 .402.316.723.718.723h.958c.402 0 .718-.32.68-.723v-.88h.44v4.704a3.2 3.2 0 0 0-1.199 2.492v2h-.398c-.68 0-1.2.52-1.2 1.2v.398c0 .68.52 1.2 1.2 1.2h.797v1.198c0 .88.719 1.598 1.597 1.598h1.602c.879 0 1.598-.719 1.598-1.598v-1.199h9.992v1.2c0 .878.719 1.597 1.598 1.597h1.597c.88 0 1.602-.719 1.602-1.598v-1.199h1.195c.68 0 1.2-.52 1.2-1.2v-.398c0-.68-.52-1.199-1.2-1.199h-.398v-2a3.2 3.2 0 0 0-1.2-2.492V9.211h.442v.879c0 .402.32.723.719.723zm-20.743-.801h-.8V7.613h.8zm1.996-6.633c3.637-3.438 13.153-3.438 16.79 0v1.437H3.605zm0 2.238h7.997v7.59H6.406l3.117-4.156a.432.432 0 0 0-.082-.559c-.16-.12-.437-.078-.558.082l-1.278 1.703v-.664c0-.242-.16-.402-.402-.402-.238 0-.398.16-.398.402v1.598c0 .039.004.078.011.113l-1.41 1.883h-.601c-.051 0-.102.004-.153.004l-.14.012H4.5c-.047.007-.094.011-.14.02h-.016c-.04.007-.082.015-.121.019a.139.139 0 0 1-.04.008l-.093.023a1.866 1.866 0 0 0-.063.012c-.035.011-.066.02-.097.027-.016.004-.032.008-.047.016a2.336 2.336 0 0 0-.278.097zm2.399 16.785a.8.8 0 0 1-.797.797H3.605a.8.8 0 0 1-.796-.797v-1.199h3.195zm14.789 0c0 .438-.36.797-.8.797h-1.598c-.442 0-.801-.36-.801-.797v-1.199h3.199zm1.996-3.199c.242 0 .402.16.402.402v.399c0 .238-.16.398-.402.398H1.207c-.238 0-.398-.16-.398-.398v-.399c0-.242.16-.402.398-.402zm-1.195-2.797v2H2.406v-2c0-.785.383-1.484.973-1.922.023-.011.047-.023.066-.035a2.425 2.425 0 0 1 1.18-.433h.008c.023-.004.047-.004.07-.004.035-.004.07-.004.102-.004h14.39c.032 0 .067 0 .102.004.023 0 .047 0 .07.004h.008c.418.035.828.187 1.18.433.02.008.039.02.062.028.59.441.977 1.14.977 1.93zm-1.477-3.058c-.015-.008-.031-.012-.047-.016a1.265 1.265 0 0 1-.097-.027 1.866 1.866 0 0 0-.063-.012l-.094-.023a.139.139 0 0 1-.039-.008 1.302 1.302 0 0 1-.12-.02h-.016c-.047-.008-.094-.012-.141-.02h-.012l-.14-.011c-.051 0-.102-.004-.153-.004H15.2l3.117-4.156a.432.432 0 0 0-.082-.559c-.16-.12-.437-.078-.558.082l-1.281 1.703v-.664c0-.242-.157-.402-.399-.402-.238 0-.398.16-.398.402v1.598c0 .039.004.078.011.113l-1.41 1.883h-1.8v-7.59h7.996v7.828c-.09-.039-.184-.07-.278-.097zm2.274-5.735h.8v2.399h-.8zm0 0"/>
    <path d="M7.203 14.809H4.008c-.242 0-.403.16-.403.398v2c0 .238.16.398.403.398h3.195c.242 0 .402-.16.402-.398v-2c0-.238-.16-.398-.402-.398zm-.398 1.996H4.406v-1.2h2.399zm0 0M19.992 14.809h-3.195c-.242 0-.402.16-.402.398v2c0 .238.16.398.402.398h3.195c.242 0 .403-.16.403-.398v-2c0-.238-.16-.398-.403-.398zm-.398 1.996h-2.399v-1.2h2.399zm0 0M14.797 16.406H9.203c-.242 0-.402.16-.402.399 0 .242.16.402.402.402h5.594c.242 0 .402-.16.402-.402 0-.239-.16-.399-.402-.399zm0 0M10 15.605h4c.238 0 .398-.16.398-.398 0-.238-.16-.398-.398-.398h-4c-.238 0-.398.16-.398.398 0 .238.16.398.398.398zm0 0M14 2.418h-4c-.238 0-.398.16-.398.398 0 .243.16.403.398.403h4c.238 0 .398-.16.398-.403 0-.238-.16-.398-.398-.398zm0 0"/>
</svg>
